assets/icons/strong.svg

<svg width="24" height="25" viewBox="0 0 24 25" fill="none" xmlns="http://www.w3.org/2000/svg">
<g clip-path="url(#clip0_1_134)">
<path d="M9.04679 15.1898C8.99918 15.1343 8.96813 15.0655 8.95735 14.9918C8.94658 14.9182 8.95657 14.8428 8.98615 14.775C9.7758 12.9618 8.9193 11.9471 9.00462 7.85033C9.00863 7.65583 9.15371 7.47033 9.38617 7.47493C9.58654 7.47893 9.74352 7.65688 9.73917 7.86613C9.73534 8.04828 9.73368 8.23113 9.73388 8.41438C9.73417 8.62678 9.90016 8.80018 10.1035 8.79728C10.701 8.78878 11.8633 8.58323 12.3131 7.17368L12.5369 6.47263C12.9509 5.17529 12.2436 3.7746 10.9715 3.40886L8.68366 2.75111C7.77224 2.48908 6.7853 2.8481 6.22743 3.64442C3.55187 7.46328 1.77553 11.8551 1.02117 16.5072C0.813845 17.7855 1.39546 19.0753 2.46855 19.7166C8.49371 23.3175 15.638 23.6664 22.1111 20.5161C22.6635 20.2473 23.0204 19.6617 23.0204 19.0241V12.167C23.0204 11.6201 22.7626 11.1111 22.3307 10.8054C20.0084 9.16133 17.0512 9.35823 15.0704 11.5412C14.8939 11.7357 14.9607 12.0547 15.1975 12.1581C16.0925 12.5489 16.9384 13.1168 17.6446 13.7874C17.6816 13.8224 17.7114 13.865 17.7321 13.9124C17.7529 13.9598 17.7641 14.0112 17.7653 14.0633C17.7663 14.1155 17.7573 14.1673 17.7386 14.2157C17.7199 14.264 17.6919 14.3079 17.6564 14.3446C17.5898 14.4139 17.5002 14.4539 17.4062 14.4563C17.3122 14.4586 17.2209 14.4232 17.1511 14.3573C15.3009 12.612 12.7996 11.818 10.3111 12.6484C10.1585 12.6994 10.0562 12.8503 10.0588 13.0176C10.0691 13.7137 9.95791 14.3878 9.65379 15.0938C9.5453 15.3455 9.22317 15.3952 9.04679 15.1898Z" fill="white"/>
</g>
<defs>
<clipPath id="clip0_1_134">
<rect width="24" height="24" fill="white" transform="translate(1.52588e-05 0.666382)"/>
</clipPath>
</defs>
</svg>

<svg xmlns="http://www.w3.org/2000/svg" width="24" height="25" fill="none" viewBox="0 0 24 25"><g clip-path="url(#a)"><path fill="#fff" d="M9.047 15.19a.39.39 0 0 1-.06-.415c.789-1.813-.068-2.828.018-6.925a.37.37 0 0 1 .381-.375c.2.004.358.182.353.391a25 25 0 0 0-.005.548c0 .213.166.386.37.383.597-.008 1.76-.214 2.21-1.623l.223-.701c.414-1.298-.293-2.698-1.565-3.064L8.684 2.75c-.912-.262-1.899.097-2.457.893a31.05 31.05 0 0 0-5.206 12.863c-.207 1.278.374 2.568 1.448 3.21 6.025 3.6 13.169 3.95 19.642.8.552-.27.91-.855.91-1.493v-6.857c0-.547-.258-1.056-.69-1.362-2.323-1.644-5.28-1.447-7.26.736a.392.392 0 0 0 .127.617c.895.39 1.74.959 2.447 1.63a.38.38 0 0 1 .12.275.4.4 0 0 1-.109.282.36.36 0 0 1-.505.013c-1.85-1.746-4.351-2.54-6.84-1.71a.38.38 0 0 0-.252.37c.01.696-.101 1.37-.405 2.076a.36.36 0 0 1-.607.096"/></g><defs><clipPath id="a"><path fill="#fff" d="M0 .666h24v24H0z"/></clipPath></defs></svg>
